X:1
T:Bartlett, CM
T:Bartlett, CM
T:Marlo Lummis Bartlett (1847-1919)
T:Public Domain Courtesy of the Cyber Hymnal™
C:Marlo Lummis Bartlett (1847-1919)
Z:Public Domain
Z:Courtesy of the Cyber Hymnal™
%%score ( 1 2 ) ( 3 4 )
L:1/8
Q:1/4=113
M:4/4
K:F
V:1 treble 
V:2 treble 
V:3 bass 
V:4 bass 
V:1
 [CF]2 | [FA]2 [FB]2 c2 [DB][FA] | [FG]2 (AB) [FA]2 [FB]2 | [Fc]2 [Fd]2 [Ge]2 d2 | [Ec]6 [EB]2 | %5
 A2 [^CG]2 F2 [Fd]2 | c3 z B [FA]2 c2 | [DG]2 (AB) [CF]2 [CE]2 | [CF]6 |] %9
V:2
 x2 | x4 (FE) x2 | x2 E2 x4 | x6 (GF) | x8 | (FD) x (D F) x3 | F2 (E2 x C_E) x2 | x2 D2 x4 | x6 |] %9
V:3
 [F,A,]2 | [F,C]2 [G,C]2 [A,C]2 [B,D]2 | C2 [C,C]2 [F,C]2 [G,C]2 | %3
 [A,C]2 [_A,=B,]2 (C=A,) [G,B,]2 | [C,C]6 [^C,G,]2 | [D,F,]2 [E,B,]2 [F,A,]2 (B,A,) | %6
 (G,C) [C,C]2 [F,C]2 (F,^F,) x | [B,,G,]2 ([A,,^F,][G,,G,]) [C,A,]2 (G,B,) | [F,A,]6 |] %9
V:4
 x2 | x8 | C2 x6 | x4 G,2 x2 | x8 | x6 B,,2 | C,2 x3 A,,2 x2 | x6 C,2 | x6 |] %9

